X:742
%%etbk:tnset id:511,pos:2,rep:3x,ant:
%%etbk:wsite https://thesession.org/tunes/3851
%%etbk:video src:ytube,cde:rp189el8Rx0,desc:
%%etbk:pldat 2016-08-18T18:06,2016-08-17T15:22,2016-08-16T15:21,2016-08-15T18:33,2016-08-12T16:24,2016-08-11T18:03,2016-08-10T15:17,2016-08-09T16:06,2016-08-08T18:03,2016-08-06T10:48,2016-08-03T15:45,2016-08-02T15:50,2016-06-09T18:30,2016-06-08T15:52,2016-06-07T15:50,2016-06-06T18:04,2016-06-04T14:53,2016-06-04T14:47,2016-06-02T18:09,2016-06-01T18:20,2016-05-31T16:34,2016-05-30T17:55,2016-05-29T11:24,2016-05-26T18:34,2016-05-25T16:40,2016-05-24T15:50,2016-05-18T17:31,2016-05-17T17:18,2016-05-16T15:40,2016-05-15T15:00,2016-05-14T17:14,2016-05-13T15:54,2016-05-12T18:43,2016-05-11T15:51,2016-05-10T19:28,2016-05-09T19:20,2016-05-03T18:09,2016-04-30T17:31,2016-04-28T18:10,2016-04-23T16:24,2016-04-20T10:34,2016-04-18T18:16,2016-04-12T16:57,2016-03-30T17:05,2016-03-21T18:36,2016-03-17T18:00,2016-03-14T18:37,2016-02-13T14:53,2016-02-04T19:37,2016-02-03T16:53,2016-02-02T18:01,2016-02-02T15:18,2016-02-01T17:57,2016-01-30T14:19,2016-01-27T17:11,2016-01-25T19:08,2016-01-24T14:38,2016-01-19T17:15,2016-01-17T14:44,2016-01-14T18:21,2016-01-13T16:45,2016-01-12T17:22,2016-01-10T13:41,2016-01-02T13:29,2016-01-01T16:21,2015-12-31T14:32,2015-12-28T16:20,2015-12-23T17:14,2015-12-16T16:45,2015-12-15T16:10,2015-12-13T14:21,2015-08-19T16:54,2015-08-18T16:36,2015-08-17T18:39,2015-08-16T13:55,2015-08-15T15:50,2015-08-14T15:14,2015-08-13T18:04,2015-08-11T17:43,2015-08-09T16:21,2015-08-02T11:44,2015-08-01T16:50,2015-07-31T18:16,2015-07-30T19:22,2015-07-29T16:48,2015-07-25T14:50,2015-07-24T18:32,2015-07-23T18:11,2015-07-20T18:51,2015-07-18T14:49,2015-07-17T09:56,2015-07-15T16:50,2015-07-08T15:32,2015-07-07T09:32,2015-06-17T17:50,2015-06-13T16:20,2015-06-10T18:02,2015-06-09T16:25,2015-06-05T17:25,2015-06-04T18:25,2015-06-01T16:52,2015-05-31T14:03,2015-05-25T16:08,2015-05-25T10:24
T: Brady's
Z: Piano Box Version by Martin Fleischmann
H: Created 2015-05-23 /  Last Modified 2015-07-23
R: slip jig
M: 9/8
L: 1/8
K: Dmix
M: 7/8
|:"D-Drone"!3!A2 AG ABc|!1!E!2!E DA DEG|!5!A2 !3!A!1!A Bcd|!5!e2 !2!BA B!1!A!2!G|
!3!A2 AG ABc|EE DA DEG|A2 GE GAE|D/D/D DA DEG:|
A2 A!1!A Bcd|eA fA gAA|!5!aB !4!gf gae|!1!d2 !2!Bd BAG|
A2 ~A2 Bc!4!d|!2!~e2 ~f2 ~g2e|!5!a2 !4!gf def|{=f}!2!e4 !2!egb|
!4!a2 !4!gf gae|d2 d2 efg|!5!a2 gf gae|!1!d2 !2!Bd BAG|
A2 ~A2 Bcd|~e2 BA BAG|A2 GE GAE|D/D/D DA DEG||


